src/assets/duotone/Mask2.svg

<svg width="24" height="24" viewBox="0 0 24 24"  xmlns="http://www.w3.org/2000/svg">
<path opacity="0.4" d="M21.9698 11.9998C21.9698 14.9398 20.6898 17.5998 18.6498 19.4098C16.8898 21.0098 14.5598 21.9698 11.9998 21.9698C6.49979 21.9698 2.02979 17.4998 2.02979 11.9998C2.02979 6.49979 6.49979 2.02979 11.9998 2.02979C14.5598 2.02979 16.8898 2.98979 18.6498 4.58979C20.6898 6.39979 21.9698 9.05979 21.9698 11.9998Z" />
<path d="M11.9698 16.3902C11.9498 18.0402 10.7198 18.4402 9.56978 17.9802C7.19978 17.0302 5.52979 14.7102 5.52979 12.0002C5.52979 9.29024 7.19978 6.97024 9.56978 6.01024C10.7198 5.55024 11.9498 5.96024 11.9698 7.60024V16.3902Z" />
</svg>

<?xml version="1.0" encoding="UTF-8"?>
<svg width="24" height="24" viewBox="0 0 24 24" xmlns="http://www.w3.org/2000/svg">
 <path d="m21.97 12c0 2.94-1.28 5.6-3.32 7.41-1.76 1.6-4.09 2.56-6.65 2.56-5.5 0-9.97-4.47-9.97-9.97 0-5.5 4.47-9.97 9.97-9.97 2.56 0 4.89 0.96 6.65 2.56 2.04 1.81 3.32 4.47 3.32 7.41z" opacity=".4"/>
 <path d="m11.97 16.39c-0.02 1.65-1.25 2.05-2.4 1.59-2.37-0.95-4.04-3.27-4.04-5.98 0-2.71 1.67-5.03 4.04-5.99 1.15-0.46 2.38-0.05 2.4 1.59v8.79z"/>
</svg>
